T: Inverness Gathering, The
M: 4/4
L: 1/8
K: Amix
|: (e>c) |(d>c)(B>c) (A>B)(c>A) | (a>ga)>(f e>a)Aa | .g2 (BA)  G2 (BAG) | .g2 .d2 d2 (e>c) |
(d>c)(B>c) (A>B)(c>A) | (a>A)(a>f) e>aAa | g>(ed>B) G>(Bd>B) | .e2 .A2 A2 |:
